packages/homepage/src/assets/images/microsoft.svg

<svg fill="none" height="37" viewBox="0 0 170 37" width="170" xmlns="http://www.w3.org/2000/svg"><g fill="#fff"><path d="m0 17.2656h17.2656v-17.2656h-17.2656z"/><path d="m19.0851.0929688c-.0531.0398432-.0929 3.9312512-.0929 8.6328112v8.53982h17.2656v-17.2656h-8.5399c-4.7015 0-8.5929.0398438-8.6328.0929688z"/><path d="m157.648 5.84375c-1.394.30547-2.868 1.3414-3.493 2.48359-.544 1.00938-.757 2.04536-.757 3.65236v1.4211l-2.589.0797-.08 2.9882h2.669v12.6172h3.719v-12.6172h5.445v4.011c.014 4.7945.107 5.6976.691 6.8797.492.9562 1.262 1.5937 2.271 1.8726.85.2258 2.696.186 3.653-.0797l.823-.239v-2.975l-.757.2523c-1.222.4117-2.178.1594-2.656-.7304-.213-.3719-.239-.9165-.279-4.7149l-.04-4.2766h3.732v-3.0546h-3.719v-4.54223l-.358.09297c-.213.03984-1.05.29219-1.86.54453l-1.501.46485v3.50628l-5.471-.0797.039-1.5539c.054-1.7.226-2.19143.943-2.72268.492-.3586 1.634-.45157 2.418-.18594l.611.2125v-1.58047c0-1.34141-.027-1.58047-.226-1.64688-.399-.15937-2.617-.19921-3.228-.07968z"/><path d="m74.9594 7.15857c-.6906.425-1.0226 1.00937-1.0226 1.81953 0 1.3016.9828 2.1383 2.4039 2.0188 1.2086-.1063 1.9523-.8766 1.9523-2.03208 0-.79688-.2656-1.26172-.9961-1.76641-.5711-.38515-1.7398-.41172-2.3375-.03984z"/><path d="m47.1484 29.086h3.586l-.0266-8.3672c-.0265-4.6086 0-8.3672.0399-8.3672.0398 0 1.5804 3.7719 3.4398 8.3672l3.3734 8.3805 2.6563-.0797 3.2805-8.2742c1.8062-4.5555 3.3203-8.3141 3.3601-8.3539.0399-.0532.0797 3.6921.0797 8.3007v8.3938h3.7187v-21.78126h-5.1265l-3.0414 7.46406c-1.6735 4.1172-3.161 7.743-3.2938 8.0617l-.2656.5977-1.1555-2.9219c-.6375-1.5937-2.0718-5.2195-3.1875-8.0617l-2.032-5.13986h-5.4055z"/><path d="m86.5938 13.3476c-2.6961.6109-4.8078 2.5367-5.7109 5.2461-.4118 1.1953-.518 3.8117-.2125 5.1.4781 2.0055 1.9257 3.9445 3.5992 4.8211 2.0719 1.0758 5.1664 1.182 7.464.2789l.7704-.3055.0664-1.7c.0398-.9297.0531-1.6867.0398-1.6867s-.4117.2125-.8898.4648c-2.218 1.2352-4.7016 1.0227-6.1493-.5046-1.089-1.1422-1.514-2.7891-1.2351-4.7282.2656-1.8461 1.3281-3.2804 2.8687-3.8515 1.4477-.5446 3.5063-.2922 4.8344.6109.2524.1594.4914.3055.5313.3055.0398 0 .0531-.7969.0265-1.7797l-.0398-1.7797-.8899-.2922c-1.1554-.3851-3.7718-.4914-5.0734-.1992z"/><path d="m102.398 13.2946c-1.301.1859-2.324.943-2.9746 2.2047l-.332.6375-.0133-1.368v-1.368l-3.6523.0797-.0399 7.7961-.0266 7.8094h3.7055l.0797-9.6289.3719-.7969c.5846-1.2351 1.2616-1.8594 2.2706-2.0453.678-.1195 1.78.0266 2.365.332l.371.1993v-1.793c0-1.2883-.053-1.8195-.159-1.8992-.279-.1594-1.328-.2524-1.966-.1594z"/><path d="m110.646 13.3476c-2.882.6508-4.927 2.6696-5.658 5.5782-.305 1.2086-.318 3.639-.013 4.9008.624 2.6429 2.616 4.6484 5.286 5.3523 1.142.2922 3.466.2922 4.688-.0266 2.378-.5976 4.303-2.2711 5.127-4.4226.478-1.3149.69-2.736.598-4.2102-.133-2.4039-.771-3.9578-2.125-5.3258-.85-.8367-1.461-1.2218-2.736-1.6734-.983-.3586-3.932-.4516-5.167-.1727zm3.905 3.1743c.89.3984 1.687 1.3281 2.005 2.2976.2.611.253 1.1555.253 2.5633-.014 1.5539-.053 1.8992-.319 2.5633-.385.9828-.943 1.607-1.793 2.0453-.584.3055-.85.3453-1.873.3453-1.315 0-2.032-.2258-2.829-.8898-1.248-1.0758-1.819-3.6391-1.288-5.8969.372-1.5406 1.063-2.4703 2.258-3.0281.943-.4516 2.643-.4516 3.586 0z"/><path d="m126.345 13.3477c-1.568.4382-2.962 1.5406-3.507 2.7625-.438.9961-.438 2.8023.014 3.7453.544 1.1156 1.155 1.5937 3.506 2.7226 1.182.5711 2.258 1.1688 2.39 1.3149.346.3851.439 1.3812.16 1.8062-.757 1.1555-3.573 1.036-5.685-.2523l-.77-.4649v3.5727l.478.1992c1.475.6109 4.317.8102 5.871.4117 1.713-.4383 2.975-1.3679 3.612-2.6695.266-.5578.319-.8633.319-1.9258 0-1.0359-.04-1.3547-.279-1.8062-.664-1.2618-1.514-1.8993-3.905-2.975-1.753-.7704-2.231-1.1821-2.337-1.9789-.253-1.8196 2.497-2.3508 5.179-.9961l.638.332-.08-3.3867-.797-.2524c-1.089-.3453-3.838-.4382-4.807-.1593z"/><path d="m140.184 13.4008c-1.873.4648-3.507 1.5937-4.463 3.0812-1.381 2.1649-1.687 5.6977-.717 8.3141 1.195 3.2008 4.582 5.0336 8.42 4.5555 2.192-.2657 3.387-.8102 4.728-2.1782 1.621-1.6336 2.245-3.3203 2.245-6.0562 0-2.6695-.624-4.4227-2.085-5.8969-.983-.9695-1.833-1.4476-3.228-1.8062-1.314-.3454-3.572-.3454-4.9-.0133zm4.263 3.1609c.744.3985 1.434 1.1953 1.793 2.1117.252.6641.305 1.036.305 2.5102.014 2.7226-.544 3.9976-2.098 4.7812-.704.3454-.93.3852-1.926.3852-1.434-.0133-2.324-.3586-3.068-1.2086-.863-.9961-1.115-1.8195-1.129-3.7586 0-2.6562.598-3.9578 2.218-4.7812.797-.3985.89-.4118 2.099-.3719.956.0398 1.394.1195 1.806.332z"/><path d="m74.2421 29.086h3.7188l-.0266-7.8094-.0399-7.7961-3.6523-.0797z"/><path d="m0 36.3906h17.2656v-17.2656h-17.2656z"/><path d="m19.0187 27.718.0399 8.6063 8.6062.0398 8.593.0266v-17.2656h-17.2656z"/></g></svg>

<svg width="170" height="37" viewBox="0 0 170 37" fill="none" xmlns="http://www.w3.org/2000/svg">
<path d="M0 17.2656H17.2656V0H0V17.2656Z" fill="white"/>
<path d="M19.0851 0.0929688C19.032 0.132812 18.9922 4.02422 18.9922 8.72578V17.2656H36.2578V0H27.7179C23.0164 0 19.125 0.0398438 19.0851 0.0929688Z" fill="white"/>
<path d="M157.648 5.84375C156.254 6.14922 154.78 7.18515 154.155 8.32734C153.611 9.33672 153.398 10.3727 153.398 11.9797V13.4008L150.809 13.4805L150.729 16.4687H153.398V29.0859H157.117V16.4687H162.562V20.4797C162.576 25.2742 162.669 26.1773 163.253 27.3594C163.745 28.3156 164.515 28.9531 165.524 29.232C166.374 29.4578 168.22 29.418 169.177 29.1523L170 28.9133V25.9383L169.243 26.1906C168.021 26.6023 167.065 26.35 166.587 25.4602C166.374 25.0883 166.348 24.5437 166.308 20.7453L166.268 16.4687H170V13.4141H166.281V8.87187L165.923 8.96484C165.71 9.00468 164.873 9.25703 164.063 9.50937L162.562 9.97422V13.4805L157.091 13.4008L157.13 11.8469C157.184 10.1469 157.356 9.65547 158.073 9.12422C158.565 8.76562 159.707 8.67265 160.491 8.93828L161.102 9.15078V7.57031C161.102 6.2289 161.075 5.98984 160.876 5.92343C160.477 5.76406 158.259 5.72422 157.648 5.84375Z" fill="white"/>
<path d="M74.9594 7.15857C74.2688 7.58357 73.9368 8.16794 73.9368 8.9781C73.9368 10.2797 74.9196 11.1164 76.3407 10.9969C77.5493 10.8906 78.293 10.1203 78.293 8.96482C78.293 8.16794 78.0274 7.7031 77.2969 7.19841C76.7258 6.81326 75.5571 6.78669 74.9594 7.15857Z" fill="white"/>
<path d="M47.1484 29.086H50.7344L50.7078 20.7188C50.6813 16.1102 50.7078 12.3516 50.7477 12.3516C50.7875 12.3516 52.3281 16.1235 54.1875 20.7188L57.5609 29.0993L60.2172 29.0196L63.4977 20.7454C65.3039 16.1899 66.818 12.4313 66.8578 12.3915C66.8977 12.3383 66.9375 16.0836 66.9375 20.6922V29.086H70.6562V7.30474H65.5297L62.4883 14.7688C60.8148 18.886 59.3273 22.5118 59.1945 22.8305L58.9289 23.4282L57.7734 20.5063C57.1359 18.9126 55.7016 15.2868 54.5859 12.4446L52.5539 7.30474H47.1484V29.086Z" fill="white"/>
<path d="M86.5938 13.3476C83.8977 13.9585 81.786 15.8843 80.8829 18.5937C80.4711 19.789 80.3649 22.4054 80.6704 23.6937C81.1485 25.6992 82.5961 27.6382 84.2696 28.5148C86.3415 29.5906 89.436 29.6968 91.7336 28.7937L92.504 28.4882L92.5704 26.7882C92.6102 25.8585 92.6235 25.1015 92.6102 25.1015C92.5969 25.1015 92.1985 25.314 91.7204 25.5663C89.5024 26.8015 87.0188 26.589 85.5711 25.0617C84.4821 23.9195 84.0571 22.2726 84.336 20.3335C84.6016 18.4874 85.6641 17.0531 87.2047 16.482C88.6524 15.9374 90.711 16.1898 92.0391 17.0929C92.2915 17.2523 92.5305 17.3984 92.5704 17.3984C92.6102 17.3984 92.6235 16.6015 92.5969 15.6187L92.5571 13.839L91.6672 13.5468C90.5118 13.1617 87.8954 13.0554 86.5938 13.3476Z" fill="white"/>
<path d="M102.398 13.2946C101.097 13.4805 100.074 14.2376 99.4234 15.4993L99.0914 16.1368L99.0781 14.7688V13.4008L95.4258 13.4805L95.3859 21.2766L95.3593 29.086H99.0648L99.1445 19.4571L99.5164 18.6602C100.101 17.4251 100.778 16.8008 101.787 16.6149C102.465 16.4954 103.567 16.6415 104.152 16.9469L104.523 17.1462V15.3532C104.523 14.0649 104.47 13.5337 104.364 13.454C104.085 13.2946 103.036 13.2016 102.398 13.2946Z" fill="white"/>
<path d="M110.646 13.3476C107.764 13.9984 105.719 16.0172 104.988 18.9258C104.683 20.1344 104.67 22.5648 104.975 23.8266C105.599 26.4695 107.591 28.475 110.261 29.1789C111.403 29.4711 113.727 29.4711 114.949 29.1523C117.327 28.5547 119.252 26.8812 120.076 24.7297C120.554 23.4148 120.766 21.9937 120.674 20.5195C120.541 18.1156 119.903 16.5617 118.549 15.1937C117.699 14.357 117.088 13.9719 115.813 13.5203C114.83 13.1617 111.881 13.0687 110.646 13.3476ZM114.551 16.5219C115.441 16.9203 116.238 17.85 116.556 18.8195C116.756 19.4305 116.809 19.975 116.809 21.3828C116.795 22.9367 116.756 23.282 116.49 23.9461C116.105 24.9289 115.547 25.5531 114.697 25.9914C114.113 26.2969 113.847 26.3367 112.824 26.3367C111.509 26.3367 110.792 26.1109 109.995 25.4469C108.747 24.3711 108.176 21.8078 108.707 19.55C109.079 18.0094 109.77 17.0797 110.965 16.5219C111.908 16.0703 113.608 16.0703 114.551 16.5219Z" fill="white"/>
<path d="M126.345 13.3477C124.777 13.7859 123.383 14.8883 122.838 16.1102C122.4 17.1063 122.4 18.9125 122.852 19.8555C123.396 20.9711 124.007 21.4492 126.358 22.5781C127.54 23.1492 128.616 23.7469 128.748 23.893C129.094 24.2781 129.187 25.2742 128.908 25.6992C128.151 26.8547 125.335 26.7352 123.223 25.4469L122.453 24.982V28.5547L122.931 28.7539C124.406 29.3648 127.248 29.5641 128.802 29.1656C130.515 28.7273 131.777 27.7977 132.414 26.4961C132.68 25.9383 132.733 25.6328 132.733 24.5703C132.733 23.5344 132.693 23.2156 132.454 22.7641C131.79 21.5023 130.94 20.8648 128.549 19.7891C126.796 19.0187 126.318 18.607 126.212 17.8102C125.959 15.9906 128.709 15.4594 131.391 16.8141L132.029 17.1461L131.949 13.7594L131.152 13.507C130.063 13.1617 127.314 13.0688 126.345 13.3477Z" fill="white"/>
<path d="M140.184 13.4008C138.311 13.8656 136.677 14.9945 135.721 16.482C134.34 18.6469 134.034 22.1797 135.004 24.7961C136.199 27.9969 139.586 29.8297 143.424 29.3516C145.616 29.0859 146.811 28.5414 148.152 27.1734C149.773 25.5398 150.397 23.8531 150.397 21.1172C150.397 18.4477 149.773 16.6945 148.312 15.2203C147.329 14.2508 146.479 13.7727 145.084 13.4141C143.77 13.0687 141.512 13.0687 140.184 13.4008ZM144.447 16.5617C145.191 16.9602 145.881 17.757 146.24 18.6734C146.492 19.3375 146.545 19.7094 146.545 21.1836C146.559 23.9062 146.001 25.1812 144.447 25.9648C143.743 26.3102 143.517 26.35 142.521 26.35C141.087 26.3367 140.197 25.9914 139.453 25.1414C138.59 24.1453 138.338 23.3219 138.324 21.3828C138.324 18.7266 138.922 17.425 140.542 16.6016C141.339 16.2031 141.432 16.1898 142.641 16.2297C143.597 16.2695 144.035 16.3492 144.447 16.5617Z" fill="white"/>
<path d="M74.2421 29.086H77.9609L77.9343 21.2766L77.8944 13.4805L74.2421 13.4008V29.086Z" fill="white"/>
<path d="M0 36.3906H17.2656V19.125H0V36.3906Z" fill="white"/>
<path d="M19.0187 27.718L19.0586 36.3243L27.6648 36.3641L36.2578 36.3907V19.1251H18.9922L19.0187 27.718Z" fill="white"/>
</svg>
